dist/images/services-icons/9.svg

<svg width="76" height="75" viewBox="0 0 76 75" fill="none" xmlns="http://www.w3.org/2000/svg">
<path d="M36.8574 74.9999C16.5014 74.9999 0 58.4972 0 38.1412C0 28.133 3.9891 19.0557 10.4628 12.4145C10.5472 12.3277 10.6318 12.2421 10.7172 12.1558L10.7191 12.1582C4.24569 18.7995 0.256294 27.8761 0.256294 37.8844C0.256294 58.2409 16.7578 74.7436 37.1136 74.7436C47.1217 74.7436 56.1988 70.7539 62.8399 64.2799L62.8417 64.2815C62.7561 64.3672 62.6699 64.4516 62.5837 64.536C55.942 71.011 46.8654 74.9999 36.8574 74.9999Z" fill="#969A9D"/>
<path d="M37.1151 74.7435C16.7593 74.7435 0.257812 58.2409 0.257812 37.8843C0.257812 27.8761 4.24721 18.7994 10.7206 12.1582C10.8053 12.0714 10.8899 11.9852 10.975 11.8995L10.9772 11.9013C4.50375 18.5432 0.514347 27.6199 0.514347 37.6281C0.514347 57.9846 17.0158 74.4875 37.372 74.4875C47.38 74.4875 56.4566 70.4978 63.0977 64.0229L63.1001 64.0254C63.0139 64.1103 62.9282 64.1955 62.8414 64.2799C56.2003 70.7539 47.1232 74.7435 37.1151 74.7435Z" fill="#96999C"/>
<path d="M37.3771 74.4874C17.021 74.4874 0.519531 57.9845 0.519531 37.628C0.519531 27.6198 4.50893 18.5431 10.9824 11.9013C11.067 11.8151 11.1517 11.7289 11.2368 11.6433L11.2389 11.6451C4.76546 18.2863 0.775821 27.3636 0.775821 37.3718C0.775821 57.7277 17.2775 74.2304 37.6334 74.2304C47.6414 74.2304 56.718 70.2414 63.3597 63.7668L63.3615 63.7684C63.2759 63.8542 63.1897 63.9384 63.1029 64.0228C56.4617 70.4977 47.3852 74.4874 37.3771 74.4874Z" fill="#96989A"/>
<path d="M37.6232 74.2304C17.2673 74.2304 0.765625 57.7277 0.765625 37.3718C0.765625 27.3636 4.75526 18.2863 11.2287 11.6451C11.3131 11.5582 11.3978 11.4726 11.4831 11.3864L11.485 11.3888C5.01156 18.0301 1.02216 27.1067 1.02216 37.115C1.02216 57.4714 17.5236 73.9744 37.8794 73.9744C47.8875 73.9744 56.9646 69.9846 63.6057 63.5105L63.6075 63.5123C63.5219 63.5972 63.4357 63.6823 63.3495 63.7667C56.7078 70.2414 47.6312 74.2304 37.6232 74.2304Z" fill="#95979A"/>
<path d="M37.8807 73.9747C17.5249 73.9747 1.02344 57.4717 1.02344 37.1153C1.02344 27.1071 5.01283 18.0304 11.4863 11.3891C11.5707 11.3023 11.6556 11.2161 11.7409 11.1305L11.7428 11.1323C10.1952 12.7206 8.7885 14.4484 7.54529 16.2942C7.5441 16.296 7.54272 16.2984 7.54128 16.3002C7.5329 16.3127 7.52446 16.3253 7.51608 16.3379C7.51351 16.3421 7.51135 16.3445 7.50883 16.3487C7.50135 16.36 7.49405 16.3708 7.48638 16.3822C7.48381 16.3858 7.47956 16.3924 7.47698 16.396C7.46998 16.4067 7.46345 16.4163 7.45645 16.4271C7.45244 16.4331 7.44915 16.4379 7.44544 16.4438C7.43957 16.4522 7.43304 16.4618 7.42741 16.4708C7.42227 16.4786 7.41783 16.4852 7.41269 16.4923C7.40802 16.4995 7.40287 16.5073 7.3982 16.5145C7.39233 16.5235 7.38718 16.5313 7.38138 16.5396C7.37689 16.5468 7.37293 16.5528 7.3685 16.5594C7.36216 16.569 7.35563 16.5786 7.34929 16.5881C7.34629 16.5929 7.34276 16.5983 7.33971 16.6031C7.33198 16.6145 7.32522 16.6246 7.31774 16.6366C7.31516 16.6402 7.31331 16.6432 7.31073 16.6468C7.30253 16.6594 7.29367 16.6731 7.28547 16.6857C7.28409 16.6875 7.28361 16.6881 7.28242 16.6905C7.27284 16.7049 7.26374 16.7186 7.25416 16.7336C7.25392 16.7342 7.25368 16.7342 7.2532 16.7348C3.47502 22.5211 1.27979 29.4329 1.27979 36.8591C1.27979 48.828 6.98404 59.4635 15.8225 66.1971C22.0164 70.916 29.7501 73.7177 38.1375 73.7177C42.1924 73.7177 46.0951 73.0628 49.7441 71.8535L49.7447 71.8528C49.7614 71.8475 49.7788 71.8416 49.7955 71.836C49.7967 71.836 49.7979 71.8355 49.7991 71.8348C49.8147 71.8295 49.8291 71.8248 49.8446 71.8199C49.8482 71.8187 49.8506 71.8175 49.8542 71.8163C49.868 71.8122 49.8817 71.8075 49.8955 71.8026C49.9003 71.8014 49.9039 71.8002 49.9081 71.7983C49.9201 71.7941 49.9314 71.7906 49.944 71.7864C49.9506 71.7841 49.9566 71.7822 49.9632 71.7799C49.9733 71.7761 49.9835 71.7726 49.9937 71.7696C50.0015 71.7668 50.0093 71.7642 50.017 71.7611C50.0254 71.7588 50.0344 71.7558 50.0428 71.7529C50.0524 71.7492 50.0619 71.7462 50.0721 71.7427C50.0787 71.7403 50.0847 71.7385 50.0913 71.7361C50.1027 71.7326 50.1146 71.7284 50.1254 71.7242C50.1308 71.7228 50.1362 71.7204 50.141 71.7193C50.1547 71.7146 50.1673 71.7097 50.1811 71.7055C50.1829 71.7043 50.1853 71.7039 50.1871 71.7031C50.2026 71.6978 50.2188 71.6924 50.2344 71.687C50.2356 71.6863 50.2368 71.6858 50.238 71.6858C51.1156 71.3804 51.9801 71.0427 52.826 70.6746C52.823 70.6765 52.8194 70.6776 52.8165 70.6793C56.9473 68.884 60.6849 66.354 63.8644 63.2544L63.8656 63.2563C63.78 63.3412 63.6938 63.4259 63.607 63.5108C56.9659 69.985 47.8888 73.9747 37.8807 73.9747Z" fill="#939699"/>
<path d="M38.1421 73.7172C42.1976 73.7172 46.0991 73.0624 49.7487 71.8531C46.0997 73.0624 42.197 73.7172 38.1421 73.7172ZM49.8588 71.8159C49.872 71.8117 49.887 71.8071 49.9001 71.8021C49.8864 71.8071 49.8726 71.8117 49.8588 71.8159ZM49.9127 71.7979C49.9241 71.7944 49.9373 71.7895 49.9486 71.786C49.9361 71.7902 49.9247 71.7937 49.9127 71.7979ZM50.0217 71.7607C50.0306 71.7579 50.0384 71.7553 50.0474 71.7525C50.039 71.7553 50.03 71.7584 50.0217 71.7607ZM50.13 71.7238C50.1348 71.7223 50.1414 71.72 50.1456 71.7189C50.1408 71.72 50.1354 71.7223 50.13 71.7238ZM50.239 71.6866C50.2414 71.6854 50.2402 71.6859 50.2426 71.6854C50.2414 71.6854 50.2402 71.6859 50.239 71.6866ZM7.25781 16.7344C7.25829 16.7338 7.25853 16.7338 7.25877 16.7332L7.25781 16.7344ZM7.31535 16.6464C7.31792 16.6428 7.31977 16.6398 7.32235 16.6362C7.32049 16.6392 7.3172 16.644 7.31535 16.6464ZM7.37312 16.559C7.37755 16.5524 7.3815 16.5464 7.38599 16.5392C7.3815 16.5464 7.37779 16.5524 7.37312 16.559ZM7.40281 16.5141C7.40748 16.5069 7.41263 16.4991 7.4173 16.4919C7.41287 16.4991 7.40724 16.5075 7.40281 16.5141ZM7.49099 16.3818C7.49866 16.3704 7.50596 16.3596 7.51344 16.3482C7.50572 16.3596 7.49866 16.3704 7.49099 16.3818ZM7.5499 16.2938C8.79312 14.448 10.1998 12.7202 11.7474 11.1319C11.8318 11.0457 11.9165 10.9595 12.0018 10.8739C10.3531 12.5322 8.86089 14.3474 7.5499 16.2938Z" fill="#939599"/>
<mask id="mask0_801_4881" style="mask-type:luminance" maskUnits="userSpaceOnUse" x="1" y="0" width="74" height="74">
<path d="M38.027 73.7178C29.6641 73.7178 21.9531 70.934 15.7774 66.2454C6.96486 59.5549 1.27734 48.9874 1.27734 37.0951C1.27734 29.7165 3.46613 22.8489 7.23324 17.0996L7.23419 17.0984C7.24374 17.0836 7.25281 17.0699 7.26236 17.0556C7.26356 17.0532 7.26403 17.0526 7.26541 17.0509C7.27358 17.0384 7.28242 17.0247 7.2906 17.0122C7.29245 17.0098 7.29573 17.0051 7.29758 17.0021C7.30504 16.9902 7.31179 16.9801 7.31949 16.9688C7.32253 16.964 7.32606 16.9587 7.32904 16.9539C7.33537 16.9444 7.34187 16.9349 7.3482 16.9253C7.35286 16.9188 7.35656 16.9128 7.36104 16.9057C7.36683 16.8974 7.37196 16.8897 7.37781 16.8807C7.38223 16.8742 7.38784 16.8659 7.39225 16.8587C7.39739 16.8516 7.4018 16.845 7.40694 16.8373C7.41255 16.8284 7.41906 16.8189 7.42491 16.8105C7.42861 16.8046 7.43189 16.7998 7.43589 16.7939C7.44287 16.7832 7.44938 16.7737 7.45636 16.763C7.45893 16.7594 7.46317 16.7528 7.46573 16.7493C7.47337 16.738 7.48042 16.7273 7.48812 16.716C7.49063 16.7118 7.49278 16.7094 7.49534 16.7052C7.5037 16.6928 7.51211 16.6803 7.52047 16.6678C7.5219 16.666 7.52328 16.6636 7.52447 16.6618C8.83161 14.728 10.3195 12.9244 11.9636 11.2766C12.959 10.2784 14.0108 9.33856 15.1156 8.45937C17.6971 7.24229 20.1125 5.73435 22.3214 3.97775C26.7989 2.0415 31.7402 0.967773 36.9328 0.967773C57.2293 0.967773 73.6822 17.3649 73.6822 37.5912C73.6822 52.205 65.0943 64.8182 52.6724 70.6942C51.829 71.06 50.967 71.3955 50.0919 71.699C50.0895 71.6994 50.0907 71.699 50.0883 71.7001C50.0728 71.7055 50.0567 71.7109 50.0412 71.7161C50.0394 71.7169 50.037 71.7173 50.0352 71.7185C50.0215 71.7227 50.009 71.7276 49.9952 71.7322C49.991 71.7333 49.9845 71.7357 49.9797 71.7371C49.969 71.7413 49.957 71.7455 49.9457 71.7489C49.9391 71.7512 49.9331 71.7531 49.9266 71.7555C49.9164 71.7589 49.9069 71.762 49.8973 71.7656C49.8884 71.7684 49.8806 71.771 49.8717 71.7738C49.8639 71.7768 49.8561 71.7794 49.8484 71.7822C49.8382 71.7852 49.8281 71.7887 49.8179 71.7924C49.8114 71.7947 49.8054 71.7966 49.7988 71.7989C49.7875 71.8024 49.7744 71.8073 49.763 71.8107C49.7588 71.8126 49.7553 71.8138 49.7505 71.815C49.7373 71.8198 49.7224 71.8245 49.7093 71.8286C49.7057 71.8298 49.7033 71.831 49.6997 71.8321C49.6842 71.837 49.6699 71.8417 49.6544 71.847C49.6532 71.8477 49.652 71.8481 49.6508 71.8481C49.6341 71.8537 49.6168 71.8596 49.6001 71.8649L49.5995 71.8656C45.9606 73.0671 42.0705 73.7178 38.027 73.7178ZM74.1818 43.6932C74.1824 43.6926 74.1824 43.6902 74.183 43.689C74.1824 43.6902 74.1824 43.692 74.1818 43.6932ZM74.2015 43.5843C74.2027 43.5796 74.2033 43.5742 74.2045 43.5695C74.2033 43.5748 74.2027 43.5784 74.2015 43.5843ZM74.2111 43.5326C74.2123 43.5272 74.2129 43.5219 74.2141 43.5165C74.2129 43.5213 74.2117 43.5278 74.2111 43.5326ZM74.2308 43.4196C74.2326 43.4118 74.2338 43.4041 74.235 43.3964C74.2338 43.4047 74.2326 43.4112 74.2308 43.4196ZM74.2397 43.3696C74.2409 43.3607 74.2427 43.3535 74.2439 43.3452C74.2427 43.353 74.2409 43.3613 74.2397 43.3696ZM74.2493 43.3131C74.2517 43.3 74.2541 43.2851 74.2564 43.272C74.2541 43.2857 74.2517 43.2994 74.2493 43.3131ZM74.2672 43.2096C74.6021 41.2216 74.777 39.1789 74.777 37.0957C74.777 27.2074 70.8433 18.2328 64.4514 11.6436C70.8433 18.2328 74.777 27.2068 74.777 37.0951C74.777 39.1789 74.6027 41.221 74.2672 43.2096ZM22.3232 3.97596C22.325 3.97477 22.325 3.97477 22.3268 3.97358C24.5043 2.94686 26.8001 2.12656 29.1878 1.53884C26.7989 2.12715 24.5026 2.94746 22.3232 3.97596ZM29.2188 1.5311C29.2242 1.52991 29.2308 1.52814 29.2367 1.52695C29.2308 1.52814 29.2248 1.52991 29.2188 1.5311Z" fill="white"/>
</mask>
<g mask="url(#mask0_801_4881)">
<path d="M38.027 73.7178C29.6641 73.7178 21.9531 70.934 15.7774 66.2454C6.96486 59.5549 1.27734 48.9874 1.27734 37.0951C1.27734 29.7165 3.46613 22.8489 7.23324 17.0996L7.23419 17.0984C7.24374 17.0836 7.25281 17.0699 7.26236 17.0556C7.26356 17.0532 7.26403 17.0526 7.26541 17.0509C7.27358 17.0384 7.28242 17.0247 7.2906 17.0122C7.29245 17.0098 7.29573 17.0051 7.29758 17.0021C7.30504 16.9902 7.31179 16.9801 7.31949 16.9688C7.32253 16.964 7.32606 16.9587 7.32904 16.9539C7.33537 16.9444 7.34187 16.9349 7.3482 16.9253C7.35286 16.9188 7.35656 16.9128 7.36104 16.9057C7.36683 16.8974 7.37196 16.8897 7.37781 16.8807C7.38223 16.8742 7.38783 16.8659 7.39225 16.8587C7.39739 16.8516 7.4018 16.845 7.40694 16.8373C7.41255 16.8284 7.41906 16.8189 7.42491 16.8105C7.42861 16.8046 7.43189 16.7998 7.43589 16.7939C7.44287 16.7832 7.44938 16.7737 7.45636 16.7629C7.45893 16.7594 7.46317 16.7528 7.46573 16.7493C7.47337 16.738 7.48042 16.7273 7.48812 16.716C7.49063 16.7118 7.49278 16.7094 7.49534 16.7052C7.5037 16.6928 7.51211 16.6803 7.52047 16.6678C7.5219 16.666 7.52328 16.6636 7.52447 16.6618C8.83161 14.7279 10.3195 12.9244 11.9636 11.2766C12.959 10.2784 14.0108 9.33856 15.1156 8.45937C17.6971 7.24229 20.1125 5.73435 22.3214 3.97775C26.7989 2.0415 31.7402 0.967773 36.9328 0.967773C57.2293 0.967773 73.6822 17.3649 73.6822 37.5912C73.6822 52.205 65.0943 64.8182 52.6724 70.6942C51.829 71.06 50.967 71.3955 50.0919 71.699C50.0895 71.6994 50.0907 71.699 50.0883 71.7001C50.0728 71.7055 50.0567 71.7109 50.0412 71.7161C50.0394 71.7169 50.037 71.7173 50.0352 71.7185C50.0215 71.7227 50.0089 71.7276 49.9952 71.7322C49.991 71.7333 49.9845 71.7357 49.9797 71.7371C49.969 71.7413 49.957 71.7455 49.9457 71.7489C49.9391 71.7512 49.9331 71.7531 49.9266 71.7555C49.9164 71.7589 49.9069 71.762 49.8973 71.7656C49.8884 71.7684 49.8806 71.771 49.8717 71.7738C49.8639 71.7768 49.8561 71.7794 49.8484 71.7822C49.8382 71.7852 49.8281 71.7887 49.8179 71.7924C49.8114 71.7947 49.8054 71.7966 49.7988 71.7989C49.7875 71.8024 49.7744 71.8073 49.763 71.8107C49.7588 71.8126 49.7553 71.8138 49.7505 71.815C49.7373 71.8198 49.7224 71.8245 49.7093 71.8286C49.7057 71.8298 49.7033 71.831 49.6997 71.8321C49.6842 71.837 49.6699 71.8417 49.6544 71.847C49.6532 71.8477 49.652 71.8481 49.6508 71.8481C49.6341 71.8537 49.6168 71.8596 49.6001 71.8649L49.5995 71.8656C45.9606 73.0671 42.0705 73.7178 38.027 73.7178ZM74.1818 43.6932C74.1824 43.6926 74.1824 43.6902 74.183 43.689C74.1824 43.6902 74.1824 43.692 74.1818 43.6932ZM74.2015 43.5843C74.2027 43.5796 74.2033 43.5742 74.2045 43.5695C74.2033 43.5748 74.2027 43.5784 74.2015 43.5843ZM74.2111 43.5326C74.2123 43.5272 74.2129 43.5219 74.2141 43.5165C74.2129 43.5213 74.2117 43.5278 74.2111 43.5326ZM74.2308 43.4196C74.2326 43.4118 74.2338 43.4041 74.235 43.3964C74.2338 43.4047 74.2326 43.4112 74.2308 43.4196ZM74.2397 43.3696C74.2409 43.3607 74.2427 43.3535 74.2439 43.3452C74.2427 43.3529 74.2409 43.3613 74.2397 43.3696ZM74.2493 43.3131C74.2517 43.3 74.2541 43.2851 74.2564 43.272C74.2541 43.2857 74.2517 43.2994 74.2493 43.3131ZM74.2672 43.2096C74.6021 41.2216 74.777 39.1789 74.777 37.0957C74.777 27.2074 70.8432 18.2328 64.4514 11.6436C70.8432 18.2328 74.777 27.2068 74.777 37.0951C74.777 39.1789 74.6027 41.221 74.2672 43.2096ZM22.3232 3.97595C22.325 3.97476 22.325 3.97476 22.3268 3.97357C24.5043 2.94685 26.8001 2.12655 29.1878 1.53883C26.7989 2.12714 24.5026 2.94745 22.3232 3.97595ZM29.2188 1.5311C29.2242 1.52991 29.2308 1.52813 29.2367 1.52694C29.2308 1.52813 29.2248 1.52991 29.2188 1.5311Z" fill="url(#paint0_linear_801_4881)"/>
</g>
<path d="M75.004 36.8594C75.004 51.999 65.8772 65.0068 52.8249 70.6791C65.2881 64.767 73.9061 52.0696 73.9061 37.3581C73.9061 17.0016 57.4047 0.498787 37.0486 0.498787C31.8335 0.498787 26.8717 1.58241 22.375 3.53652C27.1566 1.2681 32.5028 7.62939e-05 38.1465 7.62939e-05C58.5021 7.62939e-05 75.004 16.5029 75.004 36.8594Z" fill="white"/>
<path fill-rule="evenodd" clip-rule="evenodd" d="M27.1538 33C27.1538 26.9249 32.4575 22 38.9999 22C45.5423 22 50.8459 26.9249 50.8459 33C50.8459 36.8069 48.7642 40.1627 45.5952 42.139C42.9071 43.8153 40.0768 46.4539 40.0768 49.9113V50C40.0768 53.3137 37.1839 56 33.6153 56C30.0467 56 27.1538 53.3137 27.1538 50V48H25V50C25 54.4183 28.8572 58 33.6153 58C38.3734 58 42.2306 54.4183 42.2306 50V49.9113C42.2306 47.5075 44.244 45.3908 46.796 43.7993C50.5353 41.4674 52.9998 37.5012 52.9998 33C52.9998 25.8203 46.7318 20 38.9999 20C31.268 20 25 25.8203 25 33H27.1538ZM38 29C36.0523 29 34.472 30.3146 34.0888 32.0195L34.1166 32.0209C34.9301 32.0621 36.0346 32.1779 37.1548 32.4844C38.2662 32.7884 39.4667 33.2999 40.4017 34.1809C41.3665 35.0899 42 36.3498 42 38.0076C42 38.0379 41.9986 38.0681 41.9959 38.0982C41.8495 39.7072 41.4555 40.9377 40.8591 41.8602C40.2535 42.797 39.4729 43.3632 38.6571 43.6841C37.8593 43.9981 37.0589 44.0658 36.4081 44.0658C36.0809 44.0658 35.779 44.0484 35.5304 44.0326L35.4315 44.0262C35.3121 44.0185 35.2145 44.0122 35.1316 44.0082C35.1194 44.0292 35.1055 44.0546 35.0898 44.085C34.9887 44.2818 34.9124 44.4891 34.8131 44.7591C34.7492 44.933 34.6756 45.133 34.5797 45.3729C34.3698 45.8979 34.0688 46.5508 33.5625 47.0722C33.0191 47.6317 32.2788 48 31.3113 48C30.4734 48 29.779 47.8076 29.2345 47.4351C28.6875 47.0611 28.3744 46.562 28.2035 46.0944C28.0363 45.6372 28 45.1996 28 44.8924C28 44.7353 28.0095 44.6026 28.0197 44.5056C28.0248 44.4568 28.0301 44.4163 28.0346 44.3855C28.0369 44.37 28.0389 44.357 28.0407 44.3464L28.043 44.3324L28.044 44.3269L28.0444 44.3245L28.0446 44.3234C28.0447 44.3228 28.0448 44.3223 29.0285 44.5021C30.0122 44.6819 30.0123 44.6814 30.0124 44.6809L30.0129 44.6782L30.0134 44.6754L30.0139 44.6722C30.0139 44.6727 30.0136 44.6742 30.0134 44.6754C30.0126 44.6812 30.0109 44.6938 30.0089 44.7133C30.0047 44.7528 30 44.8153 30 44.8924C30 45.0536 30.0207 45.2404 30.0819 45.4077C30.1392 45.5646 30.2256 45.69 30.3635 45.7843C30.5037 45.8802 30.7796 46 31.3113 46C31.7135 46 31.9434 45.8687 32.1276 45.6789C32.349 45.4509 32.533 45.1046 32.7226 44.6304C32.7686 44.5154 32.82 44.3773 32.8752 44.2289C33.0055 43.8782 33.1573 43.4698 33.3111 43.1707C33.3446 43.1054 33.3841 43.0333 33.4302 42.9578C33.9871 41.535 34.8476 39.0427 34.5 38C34.2674 37.3021 33.8183 36.6043 33.4045 36.0574C32.8999 35.6346 32.5158 35.2274 32.284 34.7388C31.9977 34.1353 31.9988 33.5042 31.9999 32.9243L32 32.8209C32 29.572 34.721 27 38 27C41.279 27 44 29.572 44 32.8209H42C42 30.7447 40.2438 29 38 29ZM35.1923 43.9192C35.1923 43.9197 35.1893 43.9235 35.1832 43.9292C35.1892 43.9216 35.1923 43.9188 35.1923 43.9192Z" fill="#202020"/>
<defs>
<linearGradient id="paint0_linear_801_4881" x1="-4.49069" y1="90.8889" x2="63.7394" y2="10.9654" gradientUnits="userSpaceOnUse">
<stop stop-color="white"/>
<stop offset="1" stop-color="#EFEFEF"/>
</linearGradient>
</defs>
</svg>

<svg width="76" height="75" fill="none" xmlns="http://www.w3.org/2000/svg"><path d="M36.857 75C16.501 75 0 58.497 0 38.14c0-10.008 3.99-19.085 10.463-25.726l.254-.26.002.003C4.246 18.8.256 27.876.256 37.884c0 20.357 16.502 36.86 36.858 36.86 10.008 0 19.085-3.99 25.726-10.464l.002.001-.258.255C55.942 71.011 46.865 75 36.857 75z" fill="#969A9D"/><path d="M37.115 74.743C16.76 74.743.258 58.242.258 37.884c0-10.008 3.99-19.085 10.463-25.726.084-.087.169-.173.254-.258l.002.001C4.504 18.543.514 27.62.514 37.628c0 20.357 16.502 36.86 36.858 36.86 10.008 0 19.085-3.99 25.726-10.465l.002.002-.259.255c-6.64 6.474-15.718 10.463-25.726 10.463z" fill="#96999C"/><path d="M37.377 74.487C17.021 74.487.52 57.985.52 37.628c0-10.008 3.989-19.085 10.462-25.727l.255-.258.002.002C4.765 18.286.776 27.364.776 37.372c0 20.356 16.502 36.858 36.857 36.858 10.008 0 19.085-3.989 25.727-10.463l.002.001c-.086.086-.172.17-.26.255-6.64 6.475-15.717 10.464-25.725 10.464z" fill="#96989A"/><path d="M37.623 74.23C17.267 74.23.766 57.728.766 37.372c0-10.008 3.99-19.086 10.463-25.727l.254-.259.002.003C5.012 18.03 1.022 27.107 1.022 37.115c0 20.356 16.502 36.86 36.857 36.86 10.009 0 19.086-3.99 25.727-10.464l.002.001-.258.255C56.707 70.24 47.63 74.23 37.623 74.23z" fill="#95979A"/><path d="M37.88 73.975c-20.355 0-36.857-16.503-36.857-36.86 0-10.008 3.99-19.085 10.463-25.726l.255-.258.002.001a37.09 37.09 0 00-4.198 5.162c0 .002-.002.004-.004.006l-.025.038-.007.01-.023.034-.009.014-.02.031-.012.017a.66.66 0 00-.032.048l-.015.023a.918.918 0 01-.03.044l-.019.03-.01.014a.994.994 0 00-.021.034l-.007.01-.026.039c0 .002-.001.002-.003.005l-.028.043A36.682 36.682 0 001.28 36.86c0 11.969 5.704 22.605 14.543 29.338a36.695 36.695 0 0022.315 7.52c4.054 0 7.957-.654 11.606-1.864l.051-.017.004-.001.046-.015.01-.004a.831.831 0 00.053-.018l.036-.012.02-.006a.437.437 0 01.03-.01l.023-.009a.427.427 0 00.026-.008l.03-.01.018-.007a.507.507 0 00.034-.012l.016-.005c.014-.004.026-.01.04-.013l.006-.003.047-.016a36.81 36.81 0 002.592-1.012l-.01.004a36.914 36.914 0 0011.048-7.425l.002.002-.259.255c-6.641 6.474-15.718 10.464-25.726 10.464z" fill="#939699"/><path d="M38.142 73.717zm11.717-1.901l.041-.014a.8.8 0 01-.041.014zm.054-.018l.036-.012-.036.012zm.109-.037l.025-.008-.025.008zm.108-.037l.016-.005-.016.005zm.109-.037l.004-.002c-.002 0-.003 0-.004.002zM7.258 16.734zm.057-.088l.007-.01a.154.154 0 01-.007.01zm.058-.087a.672.672 0 00.013-.02l-.013.02zm.03-.045l.014-.022a.714.714 0 01-.014.022zm.088-.132l.022-.034-.022.034zm.059-.088z" fill="#939599"/><mask id="mask0_801_4881" style="mask-type:luminance" maskUnits="userSpaceOnUse" x="1" y="0" width="74" height="74"><path d="M38.027 73.718a36.67 36.67 0 01-22.25-7.473c-8.812-6.69-14.5-17.258-14.5-29.15A36.356 36.356 0 017.233 17.1l.001-.002a3.183 3.183 0 01.031-.047l.026-.039a.999.999 0 01.029-.043l.009-.015.02-.029.012-.02a.888.888 0 00.046-.068.726.726 0 01.018-.026l.01-.017c.008-.01.014-.02.021-.031l.01-.014.022-.033.007-.01.025-.038.004-.006a36.82 36.82 0 017.592-8.203 36.772 36.772 0 007.205-4.481A36.726 36.726 0 0136.933.968c20.296 0 36.75 16.397 36.75 36.623 0 14.614-8.589 27.227-21.01 33.103-.844.366-1.706.701-2.581 1.005l-.004.001-.047.016-.006.003-.04.013-.015.005a.453.453 0 01-.034.012l-.02.007-.029.01-.025.008-.024.008a.52.52 0 00-.03.01l-.02.007-.035.012a.99.99 0 01-.054.018l-.01.003a1.995 1.995 0 00-.048.016l-.05.017h-.002a36.845 36.845 0 01-11.572 1.853zm36.155-30.025l.001-.004-.001.004zm.02-.109l.002-.015-.002.015zm.01-.051c0-.006 0-.011.002-.017a.152.152 0 00-.003.017zm.019-.113zm.009-.05c0-.01.003-.017.004-.025l-.004.025zm.01-.057l.006-.041-.007.041zm.017-.103c.335-1.988.51-4.031.51-6.114 0-9.889-3.934-18.863-10.326-25.452 6.392 6.589 10.326 15.563 10.326 25.451 0 2.084-.174 4.126-.51 6.115zM22.323 3.976l.004-.002a36.59 36.59 0 01-.004.002zm6.896-2.445l.018-.004-.018.004z" fill="#fff"/></mask><g mask="url(#mask0_801_4881)"><path d="M38.027 73.718a36.67 36.67 0 01-22.25-7.473c-8.812-6.69-14.5-17.258-14.5-29.15A36.356 36.356 0 017.233 17.1l.001-.002a3.183 3.183 0 01.031-.047l.026-.039a.999.999 0 01.029-.043l.009-.015.02-.029.012-.02a.888.888 0 00.046-.068.726.726 0 01.018-.026l.01-.017c.008-.01.014-.02.021-.031l.01-.014.022-.033.007-.01.025-.038.004-.006a36.816 36.816 0 017.592-8.203 36.772 36.772 0 007.205-4.481A36.726 36.726 0 0136.933.968c20.296 0 36.75 16.397 36.75 36.623 0 14.614-8.589 27.227-21.01 33.103-.844.366-1.706.701-2.581 1.005l-.004.001-.047.016-.006.003-.04.013-.015.005a.453.453 0 01-.034.012l-.02.007-.029.01-.025.008-.024.008a.52.52 0 00-.03.01l-.02.007-.035.012a.99.99 0 01-.054.018l-.01.003a1.995 1.995 0 00-.048.016l-.05.017h-.002a36.845 36.845 0 01-11.572 1.853zm36.155-30.025l.001-.004-.001.004zm.02-.109l.002-.015-.002.015zm.01-.051c0-.006 0-.011.002-.017a.152.152 0 00-.003.017zm.019-.113zm.009-.05c0-.01.003-.017.004-.025l-.004.025zm.01-.057l.006-.041-.007.041zm.017-.103c.335-1.988.51-4.031.51-6.114 0-9.889-3.934-18.863-10.326-25.452 6.392 6.589 10.326 15.563 10.326 25.451 0 2.084-.174 4.126-.51 6.115zM22.323 3.976l.004-.002a36.59 36.59 0 01-.004.002zM29.22 1.53l.018-.004-.018.004z" fill="url(#paint0_linear_801_4881)"/></g><path d="M75.004 36.86c0 15.139-9.127 28.147-22.18 33.82 12.464-5.913 21.082-18.61 21.082-33.322 0-20.356-16.501-36.86-36.857-36.86a36.726 36.726 0 00-14.674 3.039A36.694 36.694 0 0138.147 0c20.355 0 36.857 16.503 36.857 36.86z" fill="#fff"/><path fill-rule="evenodd" clip-rule="evenodd" d="M27.154 33c0-6.075 5.304-11 11.846-11s11.846 4.925 11.846 11c0 3.807-2.082 7.163-5.25 9.139-2.689 1.676-5.52 4.315-5.52 7.772V50c0 3.314-2.892 6-6.46 6-3.57 0-6.462-2.686-6.462-6v-2H25v2c0 4.418 3.857 8 8.615 8s8.616-3.582 8.616-8v-.089c0-2.404 2.013-4.52 4.565-6.112C50.536 41.467 53 37.501 53 33c0-7.18-6.268-13-14-13s-14 5.82-14 13h2.154zM38 29c-1.948 0-3.528 1.315-3.911 3.02h.028c.813.042 1.918.158 3.038.464 1.111.304 2.312.816 3.247 1.697.965.909 1.598 2.169 1.598 3.827 0 .03-.001.06-.004.09-.147 1.61-.54 2.84-1.137 3.762-.605.937-1.386 1.503-2.202 1.824-.798.314-1.598.382-2.249.382-.327 0-.629-.018-.878-.033l-.099-.007a15.753 15.753 0 00-.3-.018 1.783 1.783 0 00-.041.077 5.985 5.985 0 00-.277.674c-.064.174-.137.374-.233.614-.21.525-.511 1.178-1.017 1.7-.544.559-1.284.927-2.252.927-.838 0-1.532-.192-2.076-.565a2.739 2.739 0 01-1.032-1.34A3.529 3.529 0 0128 44.891a3.728 3.728 0 01.04-.546l.003-.014.001-.005v-.004l.985.18.983.178v-.003l.001-.003v-.003.003l-.004.038a1.727 1.727 0 00.073.695.741.741 0 00.281.376c.14.096.417.216.948.216.402 0 .632-.131.817-.321.221-.228.405-.574.595-1.049.046-.115.097-.253.152-.401.13-.35.282-.76.436-1.058a2.88 2.88 0 01.12-.213c.556-1.423 1.417-3.915 1.069-4.958-.233-.698-.682-1.396-1.096-1.943-.504-.422-.888-.83-1.12-1.318-.286-.604-.285-1.235-.284-1.815v-.103c0-3.248 2.721-5.82 6-5.82s6 2.572 6 5.82h-2c0-2.075-1.756-3.82-4-3.82zm-2.808 14.92l-.009.01a.045.045 0 01.01-.01z" fill="#202020"/><defs><linearGradient id="paint0_linear_801_4881" x1="-4.491" y1="90.889" x2="63.739" y2="10.965" gradientUnits="userSpaceOnUse"><stop stop-color="#fff"/><stop offset="1" stop-color="#EFEFEF"/></linearGradient></defs></svg>
